lib/assets/icons/svg/outlined-navigation-close.svg

<svg xmlns="http://www.w3.org/2000/svg" viewBox="0 0 24 24"><path d="M5.605 18.892a.473.473 0 0 1-.35-.14.5.5 0 0 1 0-.71l6.035-6.04-6.035-6.04a.5.5 0 0 1 .7-.71l6.042 6.042 6.038-6.042a.51.51 0 0 1 .71 0 .5.5 0 0 1 0 .71l-6.04 6.04 6.04 6.04a.5.5 0 0 1 0 .71.473.473 0 0 1-.35.14.501.501 0 0 1-.36-.14l-6.038-6.042-6.042 6.042a.46.46 0 0 1-.35.14z"/></svg>

<svg viewBox="0 0 24 24" xmlns="http://www.w3.org/2000/svg">
  <path  d="M 5.605 18.892 C 5.474 18.896 5.347 18.845 5.255 18.752 C 5.058 18.556 5.058 18.238 5.255 18.042 L 11.29 12.002 L 5.255 5.962 C 5.058 5.766 5.058 5.448 5.255 5.252 C 5.449 5.061 5.761 5.061 5.955 5.252 L 11.997 11.294 L 18.035 5.252 C 18.233 5.06 18.547 5.06 18.745 5.252 C 18.942 5.448 18.942 5.766 18.745 5.962 L 12.705 12.002 L 18.745 18.042 C 18.942 18.238 18.942 18.556 18.745 18.752 C 18.653 18.845 18.526 18.896 18.395 18.892 C 18.261 18.895 18.131 18.845 18.035 18.752 L 11.997 12.71 L 5.955 18.752 C 5.864 18.847 5.736 18.897 5.605 18.892 Z"/>
</svg>
